X:653
T:The Saltire Society Reel
M:2/4
L:1/16
S:Colin Hume's website,  colinhume.com  - chords can also be printed below the stave.
Q:1/4=120
C:Bill Clement
K:D
P:A
|: fe | "D"d2a2 a2fe | "D"d2f2 f4 | "A"efge cdec | "A"A2e2 e2fe |\
"D"d2a2 a2fe | "D"d2f2 f4 | "A"efge cdec | "D"d4 d2 :|
P:B
|: fe | "D"d2f2 f2ed | "A"c2e2 e4 | "G"BcdB "A"cdec | "Bm"d2f2 "A7/C#"f3e |\
"D"d2f2 f2ed | "A"c2e2 e4 | "G"BcdB "A"cdec | "D"d4 d2 :|

